X:1
T:Title
%%score { 1 | 2 }
L:1/8
M:3/4
K:Db
V:1 treble nm="Grand Piano"
V:2 bass 
V:1
 z2 z2[Q:1/4=100] [FA]>[DF] | [FB]3 [FA] [EG]>[DF] | [CA]2 [CG]2 [Gc]>[GB] | [CA]3 [CB] [CG]>[CA] | %4
[M:2/4] [DF]4 |[M:1/4] [DF]>[EG] |[M:3/4] [FB]3 [DF] [EG]>[FA] | B2 d2 c>B | A3 G [CE]>[CF] | %9
[M:2/4] D4 |[M:1/4] F>F |[M:3/4] [DB]3 [FB] c>F | d2 B2 B>B | [Bd]3 [Bd] [Be]>[B_f] | [=Af]6 | %15
[M:1/4] A>A |[M:3/4] [Af]3 [Ae] [Ad]>[Ac] | e2 B2 d>B | A3 d [CF]>[CE] |[M:2/4] D4 |[M:1/4] A>A | %21
[M:3/4] e3 A B>A | [Fd]2 [FA]2 [Fc]>[FB] | A3 G [CE]>[C_F] |[M:2/4] [DF]4 |[M:1/4] [DF]>[EG] | %26
[M:3/4] [FA]3 F E>D | c2 B2 d>B | A3 G [CE]>[CF] |[M:2/4] D4 |] %30
V:2
 z2 z2 [D,A,]>[D,A,] | [D,D]3 [D,D] [D,A,]>[D,A,] | [A,,A,]2 [A,,A,]2 [A,,A,]>[A,,A,] | %3
 [A,,E,]3 [A,,E,] [A,,E,]>[A,,A,] |[M:2/4] [D,A,]4 |[M:1/4] [D,A,]>[D,A,] | %6
[M:3/4] [D,D]3 [D,A,] [D,A,]>[D,D] | [G,DG]2 [G,B,G]2 [G,DG]>[G,DG] | %8
 [A,DF]3[K:bass] [A,E] [A,,G,]>[A,,A,] |[M:2/4] [D,F,]4 |[M:1/4] F,>F, | %11
[M:3/4] [B,,F,]3 [D,B,] [F,=A,F]>[F,A,] | [B,F]2 [B,DF]2 [B,DF]>[B,DF] | %13
 [G,D]3 [G,D] [G,D]>[G,B,] | [F,C]6 |[M:1/4] A,>A, |[M:3/4] [D,D]3 [E,C] [F,D]>[F,D] | %17
 [G,B,G]2 [G,DG]2 [=G,B,_F]>[G,DF] | [A,DF]3 [A,DF][K:bass] [A,,A,]>[A,,G,] |[M:2/4] [D,F,]4 | %20
[M:1/4] A,>A, |[M:3/4][K:treble] [A,CG]3 [A,CG] [A,CG]>[A,CG] | [D,D]2 [D,D]2 [D,A,]>[D,A,] | %23
 [A,C]3 [A,C] [A,,A,]>[A,,A,] |[M:2/4] [D,A,]4 |[M:1/4] [D,A,]>[D,A,] | %26
[M:3/4] [D,D]3 [D,A,D] [D,G,D]>[D,F,] | [G,D]2[K:treble] [G,DG]2 [=G,B,_F]>[G,DF] | %28
 [A,DF]3 [A,E][K:bass] [A,,G,]>[A,,A,] |[M:2/4] [D,F,]4 |] %30

